!!!!SEGMENT: pl-wumfc--n27273--001-004_szymanowski-karol--dwanascie-piesni-op-17-viii-zawod-sniac-sie-zrywam-z-loza.krn
!!!cenid: 19xx:80
!!!COM: Szymanowski, Karol
!!!COM-rismID: pe30106403
!!!CDT: 1882-1937
!!!CNT: Polish
!!!GTL: Dwanaście pieśni Op. 17
!!!OTL: VIII. Zawód/Śniąc się zrywam z łoża
!!!OMV: 004
!!!PDT:
!!!AGN: Secular; Song
!!!YEC: Copyright 2022 Narodowy Instytut Fryderyka Chopina (https://polishscores.org)
!!!YEM: License CC-BY-4.0 (https://creativecommons.org/licenses/by/4.0)
!!!SMS-siglum: PL-Wumfc
!!!SMS-shelfmark: N27273
!!!SMS-variant:
!!!SMS-altvar:
!!!SMS-shelfwork: 001-004 G
!!!NIFC-rismSourceID: 1001177326
!!!NIFC-rismChildID: 1001177524
!!!NIFC-islandoraID: pl-wumfc:9125
!!!URL-pdf-islandora: https://repozytorium.nifc.pl/islandora/object/pl-wumfc%3A9125/datastream/PDF/view
!!!URL-scan: https://polish.musicsources.pl/pl/lokalizacje/galeria/druki-muzyczne/11976/7 @EN{Scan on Polish Music Sources Website} @PL{Skany w portalu Dziedzictwo Muzyki Polskiej w otwartym dostępie}
!!!IIIF:
!!!ONB-nifc: UWAGA: str. 7-9.
!!!OMD: Allegro impetuoso.
!!!AIN: 1 piano 1 vox
!!!key: D
**kern	**kern	**dynam	**kern	**text	**text	**dynam
*part2	*part2	*part2	*part1	*part1	*part1	*part1
*staff3	*staff2	*	*staff1	*staff1	*staff1	*
*ICklav	*ICklav	*	*ICvox	*	*	*
*Ipiano	*Ipiano	*	*Ivox	*	*	*
*I"[Piano]	*I"[Piano]	*	*I"[Voce]	*	*	*
*clefF4	*clefG2	*	*clefG2	*	*	*
*k[f#c#]	*k[f#c#]	*	*k[f#c#]	*	*	*
*D:	*D:	*	*D:	*	*	*
*M3/8	*M3/8	*	*M3/8	*	*	*
=1	=1	=1	=1	=1	=1	=1
8GGG#X/ 8GG#X	16r	pp	4.r	.	.	.
.	(16B/LL	.	.	.	.	.
8r	16Fn/J	.	.	.	.	.
.	8B#X/	.	.	.	.	.
8BB\ 8B	.	.	.	.	.	.
.	16c#/Jk)	.	.	.	.	.
=2	=2	=2	=2	=2	=2	=2
8GGGn/ 8GGn	16r	.	4.r	.	.	.
.	(16d/LL	.	.	.	.	.
!	!	!LO:HP:t=poco a poco cre_scen_do:ext=s:ext=ud	!	!	!	!
8r	16Fn/J	<	.	.	.	.
.	8d#X/	.	.	.	.	.
8BB\ 8B	.	.	.	.	.	.
!	!LO:TX:b:t=(simile)	!	!	!	!	!
.	16e/Jk)	.	.	.	.	.
=3	=3	=3	=3	=3	=3	=3
8GGG#X/ 8GG#X	16r	.	4.r	.	.	.
.	16B/LL	.	.	.	.	.
8r	16Fn/J	.	.	.	.	.
.	8B#X/	.	.	.	.	.
8BB\ 8B	.	.	.	.	.	.
.	16c#/Jk	.	.	.	.	.
=4	=4	=4	=4	=4	=4	=4
8GGGn/ 8GGn	16r	.	8ffn^^\	Ach!	Sniąc	.
.	16d/LL	.	.	.	.	.
8r	16Fn/J	.	8r	.	.	.
.	8d#X/	.	.	.	.	.
8BB\ 8B	.	.	8b\	aus	się	.
.	16e/Jk	.	.	.	.	.
=5	=5	=5	=5	=5	=5	=5
!	!LO:TX:b:t=poco	!	!	!	!	!
8FFF#/ 8FF#	16r	.	[4dd#X\	Träu-	zry-	.
.	16e#X/LL	.	.	.	.	.
8r	16B/J	.	.	.	.	.
.	8f#XZ/	.	.	.	.	.
8D#X\ 8d#X	.	.	16dd#\]	.	.	.
.	16g/Jk	.	16ddn\	-men	-wam	.
!!LO:LB:g=original
=6	=6	=6	=6	=6	=6	=6
8DDD/ 8DD	16r	.	8ff#^^\	fahr	z ło-	.
.	16g#X^^/LL	.	.	.	.	.
8r	16cn/J	.	8ccn\	ich	-żą	.
.	8a/	.	.	.	.	.
8F#\ 8f#	.	.	8r	.	.	.
.	16b-X/Jk	.	.	.	.	.
=7	=7	=7	=7	=7	=7	=7
8FFF#/ 8FF#	16r	.	8r	.	.	.
.	16e#X/LL	.	.	.	.	.
8r	16B/J	.	16r	.	.	.
.	8f#/	.	8b\	in	w sza-	.
8D#X\ 8d#X	.	.	.	.	.	.
.	16gn/Jk	.	16b\	die	-rą	.
=8	=8	=8	=8	=8	=8	=8
8DDn/ 8Dn	16r	.	4ccn\	grau-	brzas-	.
.	16g#X/LL	.	.	.	.	.
8r	16cn/J	.	.	.	.	.
.	8a/	.	.	.	.	.
8F#\ 8f#	.	.	8cc#X\	-e	-ku	.
.	16b-X/Jk	.	.	.	.	.
=9	=9	=9	=9	=9	=9	=9
8BBB-X/ 8BB-X	16r	.	[4.dd\	Luft,	toń,	.
.	16Bn/LL 16bn	.	.	.	.	.
8r	16fn/J	.	.	.	.	.
.	8cn/ 8ccn	.	.	.	.	.
8D\ 8A-X 8d	.	.	.	.	.	.
.	16c#X/Jk 16cc#X	[	.	.	.	.
=10	=10	=10	=10	=10	=10	=10
8GGG/ 8GG	16r	.	4dd\]	.	.	.
.	16d/LL 16dd	.	.	.	.	.
8r	16a/J	.	.	.	.	.
.	8d#X/ 8dd#X	.	.	.	.	.
8Fn\ 8B 8fn	.	.	8r	.	.	.
.	16e/Jk 16ee	.	.	.	.	.
!!LO:LB:g=original
=11	=11	=11	=11	=11	=11	=11
8BBB-X/ 8BB-X	16r	.	8r	.	.	.
.	16B/LL 16b	.	.	.	.	.
8r	16fn/J	.	16r	.	.	.
.	8cn/ 8ccn	.	8ccn\	in	zim-	.
8D\ 8A-X 8d	.	.	.	.	.	.
.	16c#X/Jk 16cc#X	.	16cc#X\	die	-ne	.
=12	=12	=12	=12	=12	=12	=12
8GGG/ 8GG	16r	.	4dd\	kal-	w mgłach	.
.	16d/LL 16dd	.	.	.	.	.
8r	16a/J	.	.	.	.	.
.	8d#X/ 8dd#X	.	.	.	.	.
8Fn\ 8B 8fn	.	.	8gg\	-te	prze-	.
.	16e/Jk 16ee	.	.	.	.	.
=13	=13	=13	=13	=13	=13	=13
8FFF#X/ 8FF#X	16r	.	4ff#\	starr	-stwo-	.
.	16f#\LL 16ff#	<	.	.	.	.
8r	16ccn\J	.	.	.	.	.
.	8g\ 8gg	.	.	.	.	.
8D#X\ 8A 8d#X	.	.	8ccn\	ich.	-rza,	.
.	16g#X\Jk 16gg#X	.	.	.	.	.
=14	=14	=14	=14	=14	=14	=14
8FFFn/ 8FFn	16r	.	8r	.	.	.
.	16a\LL 16aa	[	.	.	.	.
!	!	!LO:HP:t=cre_scen_do:ext=ud	!	!	!	!
8r	16cc#X\J 16dd#X	<	8ee-X\	Ach,	ach,	.
.	8a#X\ 8aa#X	.	.	.	.	.
8A\ 8d#X 8a	.	.	8r	.	.	.
.	16b\Jk 16bb	.	.	.	.	.
=15	=15	=15	=15	=15	=15	=15
8EEE/ 8EE	16r	.	8r	.	.	.
.	16ccn\LL 16cccn	.	.	.	.	.
8r	16dd#X\J 16ff#	.	8r	.	.	.
.	8cc#X\ 8ccc#X	.	.	.	.	.
8D#X\ 8A 8d#X	.	.	8ee-X\	dein	jam	.
.	16dd#\Jk 16ddd	[	.	.	.	.
!!LO:PB:g=original
=16	=16	=16	=16	=16	=16	=16
8DDD-X/ 8DD-X	16r	.	4ee-X\	Sa-	Sa-	.
!	!LO:TX:b:t=poco rit.	!	!	!	!	!
.	16ee-X\LL 16eee-X	.	.	.	.	.
8r	16gg\J 16bb-X	.	.	.	.	.
.	8een\ 8eeen	.	.	.	.	.
8E-X\ 8Gn 8B-X 8e-X	.	.	8ee-\	-mum	-mum	.
.	16ffn\Jk 16fffn	.	.	.	.	.
=17	=17	=17	=17	=17	=17	=17
!	!	!	!	!	!	!LO:DY:a
!	!	!	!	!	!	!LO:HP:a
(>16CCCn/LL 16CCn	(16eee-X^^\LL 16ggg	ff	4gg\	war	ho-	ff >
16Cn/	16aa-X^^\ 16aaa-X	.	.	.	.	.
16D/	16dddn\ 16fff#X	.	.	.	.	.
16E-X/	16gg\ 16ggg	>	.	.	.	.
16G-X/	16ddd-X\ 16fffn	.	8ff#XZ\	ich,	-ża,	]]
16A/JJ	16gg-X\JJ 16ggg-X	.	.	.	.	.
*clefG2	*	*	*	*	*	*
=18	=18	=18	=18	=18	=18	=18
*^	*	*	*	*	*	*
16cn/LL	4c\	16cccn\LL 16eeen	.	8r	.	.	.
16e-X/	.	16ffn\ 16fffn	.	.	.	.	.
16fn/	.	16bb\ 16ddd#X	.	8r	.	.	.
16g-X/	.	16ee\ 16eee	.	.	.	.	.
16a-X/	8ryy	16bb-X\ 16dddn	.	16ddn\	du	tyś	.
16cc-X/JJ)	.	16ee-X\JJ) 16eee-X	.	16ee-X\	mein	mi	.
*clefF4	*	*	*	*	*	*	*
=19	=19	=19	=19	=19	=19	=19	=19
16FFFn^^/ 16AAA 16BBB 16DD#X	8ryy	(16aa\LL 16ccc#X	sf	4cc#X\	Am-	am-	.
16r	.	16dd\ 16ddd	.	.	.	.	.
*clefG2	*	*	*	*	*	*	*
[4aTT/	[4d#X\	16aa-X\ 16cccn	.	.	.	.	.
.	.	16dd-X\ 16ddd-X	.	.	.	.	.
.	.	16ggn\ 16bbn	>	8ccn\	-bra-	-bry-	.
.	.	16ccn\JJ 16cccn	.	.	.	.	.
!!LO:LB:g=original
=20	=20	=20	=20	=20	=20	=20	=20
*	*	*^	*	*	*	*	*
16a/LL]	8d#\]	8ff#X\) 8fff#X	8ryy	.	8bn\	-duft.	-woń.	.
16ccn/JJ	.	.	.	.	.	.	.	.
!	!	!LO:TX:b:t=m.d.	!	!	!	!	!	!
8ryy	8ryy	8ffn\	16dd</LL	.	8r	.	.	.
.	.	.	16dd#X</JJ	.	.	.	.	.
!	!	!LO:TX:b:t=rit.	!	!	!	!	!	!
8r	8ryy	16ccn^^\LL 16ee	8ryy	.	8r	.	.	.
.	.	16cc^^\JJ 16ee	.	.	.	.	.	.
*v	*v	*	*	*	*	*	*	*
*clefF4	*	*	*	*	*	*	*
=21	=21	=21	=21	=21	=21	=21	=21
(16AAA-X/LL 16AA-X	(4.b-X^^/ 4.bb-X	16b-\LL	p <	8r	.	.	.
16G-X/	.	16ccn\ 16ee	.	.	.	.	.
!	!	!	!	!LO:TX:a:t=a tempo - passionato	!	!	!
16B-X/	.	16b-\	.	8ccn\	Durch	W puszcz	.
16Bn/JJ)	.	16cc\ 16ee	.	.	.	.	.
(16cn^^\LL 16e	.	16b-\	.	8a-X/	die	sło-	.
16c^^\JJ 16e	.	16cc\JJ 16ee	.	.	.	.	.
=22	=22	=22	=22	=22	=22	=22	=22
8d-X\L) 8fn	4a/) 4aa	(>16a\LL	[	4an/	hel-	-necz-	.
.	.	16cc#X\	>	.	.	.	.
(8D-X\	.	16een\	.	.	.	.	.
.	.	16ffn\JJ)	.	.	.	.	.
8DD-X\J)	8ryy	16dd^^\LL 16ff#X	.	8ddn\	-le	-nych	.
.	.	16dd^^\JJ 16ff#	]	.	.	.	.
=23	=23	=23	=23	=23	=23	=23	=23
!	!	!	!	!	!	!	!LO:HP:a:t=poco a poco cresc.:ext=s
(<16BBB-X/LL 16BB-X	(4.ccn^^/ 4.cccn	16cc\LL	<	4dd\	Wü-	wa-	<
16A-X/	.	16dd\ 16ff#X	.	.	.	.	.
16cn/	.	16cc\	.	.	.	.	.
16c#X/JJ)	.	16dd\ 16ff#	.	.	.	.	.
(16d^^\LL 16f#X	.	16cc\	.	8b-X\	-ste	-rach	.
16d^^\JJ 16f#	.	16dd\JJ 16ff#	.	.	.	.	.
=24	=24	=24	=24	=24	=24	=24	=24
8e-X\L) 8g	4.bn/) 4.bbn	(>16b\LL	[	8bn\	glüh-	nę-	.
.	.	16dd#X\	>	.	.	.	.
(8E-X\	.	16ff#\	.	8b\	-test	-cił	.
.	.	16gg\JJ)	.	.	.	.	.
8EE-X\J)	.	16een\LL 16gg#X	.	16b\	du	mię	.
.	.	16ee\JJ 16gg#	]	16een\	da-	twój	.
!!LO:LB:g=original
=25	=25	=25	=25	=25	=25	=25	=25
(16CCn\LL 16Cn	(4dd/ 4ddd	16dd\LL	.	4ee\	-hin,	cud,	.
16B-X\	.	16ee\ 16gg#X	.	.	.	.	.
16dn\	.	16dd\	.	.	.	.	.
16d#X\JJ)	.	16ee\ 16gg#	.	.	.	.	.
16e^^\LL 16g#X	8cc#X/ 8ccc#X	16cc#\	.	8r	.	.	.
16e^^\JJ 16g#	.	16ee\JJ 16gg#	.	.	.	.	.
=26	=26	=26	=26	=26	=26	=26	=26
*	*	*	*	*^	*	*	*
16fn\ 16a	8ccn/L 8cccn	16cc\LL	p	8r	8ryy	.	.	.
(16DD-X\LL	.	16ee\	<	.	.	.	.	.
16D-X\	8a-X/ 8aa-X	16a-\	.	8b-X/	8r	und	.	[
16Fn\	.	16b-X\	.	.	.	.	.	.
16B-X\	8g/J 8gg	16g\	.	8bn/	8b\	dein	O	.
16Bn\	.	16bn\JJ)	.	.	.	.	.	.
*	*v	*v	*	*	*	*	*	*
=27	=27	=27	=27	=27	=27	=27	=27
16cn\JJ)	(8f#XZ\L 8ccn 8ff#XZ	.	4ccn/	8cc\	A-	tchnień	.
(16DDn\LL	.	.	.	.	.	.	.
16Dn\	8ee\ [>8ff# [>8aa 8eee	.	.	8cc\	.	two-	.
16cn\	.	[	.	.	.	.	.
16c#X\	8ee-X\J 8ff#] 8aa] 8eee-X	.	8f#XZ/	8ryy	-tem	-ich	.
16d#X\	.	.	.	.	.	.	.
*	*	*	*v	*v	*	*	*
=28	=28	=28	=28	=28	=28	=28
*	*^	*	*	*	*	*
16e\JJ)	8dd/L 8ddd	16dd\LL	.	8.g/	küß-	ża-	.
(16EE-X\LL	.	16ff#\	.	.	.	.	.
16E-X\	8b-X/ 8bb-X	16b-\	.	.	.	.	.
!	!	!	!LO:HP:t=cre_scen_do:ext=ud	!	!	!	!
16G\	.	16ccn\	<	16b-X\	-te	-rach,	.
16cn\	8a/J 8aa	16a\	.	16ccn\	und	po-	.
16c#X\	.	16cc#X\JJ)	.	16cc#X\	dein	-ca-	.
*	*v	*v	*	*	*	*	*
=29	=29	=29	=29	=29	=29	=29
16d\JJ)	(8g#X\L 8dd 8gg#X	.	4dd\	Küß	-łun-	.
(16EEn\LL	.	.	.	.	.	.
16En\	8ff#\ [>8gg# [>8bb 8fff#	.	.	.	.	.
16d\	.	.	.	.	.	.
16f##X\	8ffn\J 8gg#] 8bb] 8fffn	.	8dd\	ver-	-ków	.
16g#X\	.	.	.	.	.	.
!!LO:LB:g=original
=30	=30	=30	=30	=30	=30	=30
*	*^	*	*	*	*	*
16a\JJ)	8ee/L 8eee	16ee\LL	.	8ee\	-süß-	cza-	.
(16FFn\LL	.	16gg#X\	[	.	.	.	.
16Fn\	8ccn/ 8cccn	16cc\	.	8ccn\	-te	-rach	.
16Bn\	.	16dd\	.	.	.	.	.
16d\	8b/J 8bb	16b\	.	8r	.	.	.
16d#X\JJ)	.	16dd#X\JJ)	.	.	.	.	.
*	*v	*v	*	*	*	*	*
=31	=31	=31	=31	=31	=31	=31
!	!	!	!	!	!	!LO:DY:a
16FF#X\LL 16F#X	16r	.	[4.ee\	See-	snił	ff
16A#X\JJ 16dn 16f#	16a#X\ 16ddn 16ee 16ff# 16aa#X	ff	.	.	.	.
16A#\LL 16d 16f#	16a#\LL 16dd 16ee 16ff# 16aa#	.	.	.	.	.
16A#\ 16d 16f#	16a#\ 16dd 16ee 16ff# 16aa#	.	.	.	.	.
16A#\ 16d 16f#	16a#\ 16dd 16ee 16ff# 16aa#	.	.	.	.	.
16A#\JJ 16d 16f#	16a#\JJ 16dd 16ee 16ff# 16aa#	.	.	.	.	.
=32	=32	=32	=32	=32	=32	=32
16A#X\LL 16d 16f#	16a#X\LL 16dd 16ee 16ff# 16aa#X	<	8.ee\]	.	.	.
16A#\ 16d 16f#	16a#\ 16dd 16ee 16ff# 16aa#	.	.	.	.	.
16A#\ 16d 16f#	16a#\ 16dd 16ee 16ff# 16aa#	.	.	.	.	.
16A#\ 16d 16f#	16a#\ 16dd 16ee 16ff# 16aa#	.	16a#X/	-le	moj	.
16A#\ 16d 16f#	16a#\ 16dd 16ee 16ff# 16aa#	.	8a#/	mir	ból	.
16A#\JJ 16d 16f#	16a#\JJ 16dd 16ee 16ff# 16aa#	.	.	.	.	.
=33	=33	=33	=33	=33	=33	=33
16DD\LL 16D	16r	.	4.r	.	.	.
16B\JJ 16d 16g	16b\LL 16dd 16ff# 16gg 16bb	.	.	.	.	.
16B\LL 16d 16g	16b\ 16dd 16ff# 16gg 16bb	.	.	.	.	.
16B\ 16d 16g	16b\ 16dd 16ff# 16gg 16bb	.	.	.	.	.
16B\ 16d 16g	16b\ 16dd 16ff# 16gg 16bb	.	.	.	.	.
16B\JJ 16d 16g	16b\JJ 16dd 16ff# 16gg 16bb	[	.	.	.	.
=34	=34	=34	=34	=34	=34	=34
16B\LL 16d 16g	16b\LL 16dd 16ff# 16gg 16bb	.	4.dd\	und	i	.
16B\ 16d 16g	16b\ 16dd 16ff# 16gg 16bb	.	.	.	.	.
16B\ 16d 16g	16b\ 16dd 16ff# 16gg 16bb	.	.	.	.	.
16B\ 16d 16g	16b\ 16dd 16ff# 16gg 16bb	.	.	.	.	.
16B\ 16d 16g	16b\ 16dd 16ff# 16gg 16bb	.	.	.	.	.
16B\JJ 16d 16g	16b\JJ 16dd 16ff# 16gg 16bb	.	.	.	.	.
!!LO:PB:g=original
=35	=35	=35	=35	=35	=35	=35
!	!	!	!	!	!	!LO:DY:a
!	!	!	!	!	!	!LO:HP:a
16BBB-X\LL 16BB-X	16r	fff	[4.aa-X\	Sinn.	trud.	fff <
16A-X\JJ 16B-X 16d 16g-X	16ccn\ 16dd 16gg-X 16aa-X 16cccn	.	.	.	.	.
16A-\LL 16B- 16d 16g-	16cc\LL 16dd 16gg- 16aa- 16ccc	.	.	.	.	.
16A-\ 16B- 16d 16g-	16cc\ 16dd 16gg- 16aa- 16ccc	.	.	.	.	.
16A-\ 16B- 16d 16g-	16cc\ 16dd 16gg- 16aa- 16ccc	.	.	.	.	.
16A-\JJ 16B- 16d 16g-	16cc\JJ 16dd 16gg- 16aa- 16ccc	.	.	.	.	.
=36	=36	=36	=36	=36	=36	=36
16A-X\LL 16B-X 16d 16g-X	16ccn\LL 16dd 16gg-X 16aa-X 16cccn	.	4aa-\]	.	.	[
16A-\ 16B- 16d 16g-	16cc\ 16dd 16gg- 16aa- 16ccc	.	.	.	.	.
16A-\ 16B- 16d 16g-	16cc\ 16dd 16gg- 16aa- 16ccc	.	.	.	.	.
16A-\ 16B- 16d 16g-	16cc\ 16dd 16gg- 16aa- 16ccc	.	.	.	.	.
16A-\ 16B- 16d 16g-	16cc\ 16dd 16gg- 16aa- 16ccc	.	8r	.	.	.
16A-\JJ 16B- 16d 16g-	16cc\JJ 16dd 16gg- 16aa- 16ccc	.	.	.	.	.
=37	=37	=37	=37	=37	=37	=37
16A-X\KL 16B-X 16d 16g-X	(8ccn\L 8gg-X 8aa-X 8cccn	>	4.r	.	.	.
8A-\ 8B- 8d 8g-	.	.	.	.	.	.
!	!LO:TX:a:t=rit.	!	!	!	!	!
.	8cc#X\ 8ccc#X	.	.	.	.	.
8A-\ 8B- 8d 8g-	.	.	.	.	.	.
.	8dd\J) 8ddd	.	.	.	.	.
16A-\Jk 16B- 16d 16g-	.	]	.	.	.	.
=38	=38	=38	=38	=38	=38	=38
*	*^	*	*	*	*	*
16A\ 16d 16f#X	(4ddn\ 4dddn	4.ff#X\ 4.aan	<	4.r	.	.	.
(16AAAn/LL	.	.	.	.	.	.	.
16AAn/	.	.	.	.	.	.	.
16D/	.	.	.	.	.	.	.
16Fn/	[<8dd#X\ [>8ddd#X	.	.	.	.	.	.
16F#X/JJ)	.	.	.	.	.	.	.
=39	=39	=39	=39	=39	=39	=39	=39
16G\ 16A 16c#XZ 16f#	8dd#\L] 8ddd#]	4ff#X/ 4aa#X	.	4.r	.	.	.
(16AAA/LL	.	.	.	.	.	.	.
!	!LO:TX:b:t=rit.	!	!	!	!	!	!
16AA/	8ee\ 8eee	.	[	.	.	.	.
16G/	.	.	.	.	.	.	.
16A/	8ffn\J) 8aa 8fffn	8ryy	.	.	.	.	.
16c#/JJ) 16fn	.	.	.	.	.	.	.
*	*v	*v	*	*	*	*	*
!!LO:LB:g=original
=40	=40	=40	=40	=40	=40	=40
!	!	!	!LO:TX:a:t=Tempo I. (ma poco più tranquillo)	!	!	!
8GGG#X/ 8DD 8GG#X	16bb\ 16bbb	sf	4b\	Ein-	Wpi-	.
.	(16B/LL	pp	.	.	.	.
8r	&(16Fn^^</J	.	.	.	.	.
.	8B#X/	.	.	.	.	.
!	!	!LO:DY:b=2	!	!	!	!
16BB\LL 16B	.	ppp	[8b\	-sam-	-ły	.
16BB\JJ 16B	16c#/Jk)	.	.	.	.	.
=41	=41	=41	=41	=41	=41	=41
*	*^	*	*	*	*	*
8GGGn/ 8GGn	16r	8ryy	.	8b\]	.	.	.
.	16d/LL	.	.	.	.	.	.
8r	16E^^</J&)	4E\	.	8b\	-kei-	pus-	.
.	8d#X/	.	.	.	.	.	.
16BB\LL 16B	.	.	.	8b\	-ten	-tyń	.
16BB\JJ 16B	16e/Jk	.	.	.	.	.	.
=42	=42	=42	=42	=42	=42	=42	=42
8GGG#X/ 8GG#X	16r	8ryy	.	([4.dd\	hin-	ci-	.
.	16B/LL	.	.	.	.	.	.
8r	(<16Fn^^</J	4F\	.	.	.	.	.
.	8B#X/	.	.	.	.	.	.
16BB\LL 16B	.	.	.	.	.	.	.
16BB\JJ 16B	16c#/Jk	.	.	.	.	.	.
=43	=43	=43	=43	=43	=43	=43	=43
!	!	!	!	!	!	!	!LO:HP:a:t=poco cresc.
8GGGn/ 8GGn	16r	8ryy	<	8dd\L]	.	.	<
.	16d/LL	.	.	.	.	.	.
8r	16E/J)	4E\	.	8dd#X\J)	.	.	.
.	8d#X/	.	.	.	.	.	.
16BB\LL 16B	.	.	.	8ee\	-gen	-sze	.
16BB\JJ 16B	16e/Jk	.	.	.	.	.	.
=44	=44	=44	=44	=44	=44	=44	=44
8FFF#/ 8FF#	16r	8ryy	.	4f#XZ/	tief	w swą	.
.	16e#X/LL	.	[	.	.	.	.
8r	(<16B^^</J	4B\	.	.	.	.	.
.	8f#X/	.	.	.	.	.	.
16D#X\LL 16d#X	.	.	.	8g/	ins	o-	.
16D#\JJ 16d#	16g/Jk	.	.	.	.	.	.
!!LO:LB:g=original
=45	=45	=45	=45	=45	=45	=45	=45
*	*	*	*	*^	*	*	*
!	!	!	!	!	!	!	!	!LO:DY:a
8DDDn/ 8DDn	16r	8ryy	.	(<8a-X/	8a-\L	flie-	-krut-	>
.	16a-X/LL	.	.	.	.	.	.	.
8r	16B-X/J)	4B-\	.	8an/)	8a\J	-hen-	.	.
.	8an/	.	.	.	.	.	.	.
16F#XZ\LL 16f#XZ	.	.	.	8b-X/	8ryy	-de	-ną	]
16F#\JJ 16f#	16b-X/Jk	.	.	.	.	.	.	.
*	*	*	*	*v	*v	*	*	*
=46	=46	=46	=46	=46	=46	=46	=46
8FFF#/ 8FF#	16r	8ryy	.	4.f#X/	Land;	właść.	.
.	16e#X/LL	.	.	.	.	.	.
8r	(<16B^^</J	4Bn\	.	.	.	.	.
.	8f#X/	.	.	.	.	.	.
16D#X\LL 16d#X	.	.	.	.	.	.	.
16D#\JJ 16d#	16g/Jk	.	.	.	.	.	.
=47	=47	=47	=47	=47	=47	=47	=47
8DDn/ 8Dn	16r	8ryy	.	4.r	.	.	.
.	16g#X/LL	.	.	.	.	.	.
8r	16cn/J)	4c\	.	.	.	.	.
.	8a/	.	.	.	.	.	.
16F#\LL 16f#	.	.	.	.	.	.	.
16F#\JJ 16f#	16a#X/Jk	.	.	.	.	.	.
*	*v	*v	*	*	*	*	*
=48	=48	=48	=48	=48	=48	=48
*^	*	*	*	*	*	*
8BBB-X/ 8BB-X	4ryy	16r	.	4.r	.	.	.
.	.	16B/LL 16b	.	.	.	.	.
8r	.	16fn/J	.	.	.	.	.
.	.	8B#X/ 8b#X	.	.	.	.	.
16Dn\LL 16dn	8A-X/	.	.	.	.	.	.
16D\JJ 16d	.	16c#/Jk 16cc#	.	.	.	.	.
=49	=49	=49	=49	=49	=49	=49	=49
!	!	!	!	!	!	!	!LO:DY:a
8GGGn/ 8GGn	4ryy	16r	pp	4ffn\	Son-	Nie-	pp
.	.	16d/LL 16dd	.	.	.	.	.
8r	.	16a/J	.	.	.	.	.
!	!	!LO:TX:b:t=rit.	!	!	!	!	!
.	.	8d#X/ 8dd#X	.	.	.	.	.
16Fn\LL 16fn	8B/	.	.	8ff\	-nen	-my	.
16F\JJ 16f	.	16e/Jk 16ee	.	.	.	.	.
!!LO:LB:g=original
=50	=50	=50	=50	=50	=50	=50	=50
8BBB-X/ 8BB-X	4ryy	16r	.	4.bn\	still	wzrok	.
.	.	16B/LL 16b	.	.	.	.	.
8r	.	16fn/J	.	.	.	.	.
.	.	8B#X/ 8b#X	.	.	.	.	.
16D\LL 16d	8A-X/	.	.	.	.	.	.
16D\JJ 16d	.	16c#/Jk 16cc#	.	.	.	.	.
=51	=51	=51	=51	=51	=51	=51	=51
!	!	!	!	!LO:TX:a:t=(a tempo)	!	!	!
8GGG/ 8GG	4ryy	16r	.	8r	.	.	.
.	.	16d/LL 16dd	.	.	.	.	.
8r	.	16an/J	.	8r	.	.	.
.	.	8d#X/ 8dd#X	.	.	.	.	.
16Fn\LL 16fn	8B/	.	.	8b\	ein	w bój	.
16F\JJ 16f	.	16e/Jk 16ee	.	.	.	.	.
=52	=52	=52	=52	=52	=52	=52	=52
!	!	!	!	!	!	!	!LO:HP:a
8FFF#/ 8FF#	4ryy	16r	.	[4.ff#X\	Rin-	dy-	<
!	!	!	!LO:HP:t=cre-scen-do:ext=ud	!	!	!	!
.	.	16f#\LL 16ff#	<	.	.	.	.
8r	.	16ccn\J	.	.	.	.	.
.	.	8g\ 8gg	.	.	.	.	.
16D#X\LL 16d#X	8A/	.	.	.	.	.	.
16D#\JJ 16d#	.	16g#X\Jk 16gg#X	.	.	.	.	.
=53	=53	=53	=53	=53	=53	=53	=53
8FFFn/ 8FFn	4ryy	16r	.	4ff#\]	.	.	[
.	.	16a\LL 16aa	.	.	.	.	.
8r	.	16cc#X\J 16dd#X	.	.	.	.	.
.	.	8a#X\ 8aa#X	.	.	.	.	.
16A\LL 16a	8d#X/	.	.	8a/	-gen	-szy	.
16A\JJ 16a	.	16b\Jk 16bb	.	.	.	.	.
=54	=54	=54	=54	=54	=54	=54	=54
8EEEn/ 8EEn	4ryy	16r	.	8r	.	.	.
.	.	16ccn\LL 16cccn	.	.	.	.	.
!	!	!	!	!	!	!	!LO:HP:a
8r	.	16dd#X\J 16ff#	[	8cc#XZ\	und	zwy-	<
.	.	8cc#X\ 8ccc#X	.	.	.	.	.
16D#X\LL 16d#X	8A/	.	.	8dd\	mit	-cie-	.
16D#\JJ 16d#	.	16dd#\Jk 16ddd#y	.	.	.	.	.
!!LO:PB:g=original
=55	=55	=55	=55	=55	=55	=55	=55
!	!	!	!	!	!	!	!LO:HP:a
8DDD-X/ 8DD-X	4ryy	16r	.	4ee-X\	Al-	-żo-	<
!	!	!LO:TX:b:t=rit.	!	!	!	!	!
.	.	16ee-X\LL 16eee-X	.	.	.	.	.
8r	.	16gg\J 16bb-X	.	.	.	.	.
.	.	8een\ 8eeen	.	.	.	.	.
16E-X\LL 16e-X	8Gn/ 8B-X	.	.	8gn/	-lah	-ną	[
!	!	!LO:N:vis=8	!	!	!	!	!
16E-\JJ 16e-	.	16ffn\Jk 16fffn	.	.	.	.	.
*v	*v	*	*	*	*	*	*
=56	=56	=56	=56	=56	=56	=56
!	!	!	!	!	!	!LO:DY:a
!	!	!	!	!	!	!LO:HP:a
(>16CCCn/LL 16CCn	(16eee-X^^\LL 16ggg	fff	[4.gg\	schwin-	w py-	ff <
16Cn/	16aa-X^^\ 16aaa-X	.	.	.	.	.
16D/	16dddn\ 16fff#X	.	.	.	.	.
16E-X/	16gg\ 16ggg	.	.	.	.	.
16F#X/	16ddd-X\ 16fffn	.	.	.	.	.
16A/JJ	16gg-X\JJ 16ggg-X	.	.	.	.	.
*clefG2	*	*	*	*	*	*
=57	=57	=57	=57	=57	=57	=57
*^	*	*	*	*	*	*
!	!	!	!	!	!	!	!LO:HP:a
16cn/LL	4c\	16cccn\LL 16eeen	.	4gg\]	.	.	[ >
!	!	!	!LO:HP:t=dimin.	!	!	!	!
16e-X/	.	16ffn\ 16fffn	>	.	.	.	.
16fn/	.	16ccc-X\ 16eee-X	.	.	.	.	.
16f#X/	.	16ff-X\ 16fff-X	.	.	.	.	.
16g#X/	8ryy	16bb-X\ 16dddn	.	8ee-X\	-gen	-sze	]
16bn/JJ)	.	16ee-X\JJ) 16eee-X	.	.	.	.	.
*clefF4	*	*	*	*	*	*	*
=58	=58	=58	=58	=58	=58	=58	=58
16FFFn/ 16AAA 16BBB 16DD#X	8ryy	(16aa\LL 16ccc#X	.	8r	.	.	.
16r	.	16ddn\ 16dddn	.	.	.	.	.
*clefG2	*	*	*	*	*	*	*
!	!	!	!	!	!	!	!LO:HP:a
[4aTT/	[4d#X\	16aa-X\ 16cccn	.	8cc#X\	hielt	chwy-	>
.	.	16dd-X\ 16ddd-X	.	.	.	.	.
.	.	16ggn\ 16bbn	.	8ccn\	ich	-tam	.
.	.	16ccn\JJ 16cccn	.	.	.	.	.
!!LO:LB:g=original
=59	=59	=59	=59	=59	=59	=59	=59
(<16a/LL]	8d#\]	8ff#X\) 8fff#X	.	4bnZ\	dich	w skrzy-	.
16ccn/	.	.	.	.	.	.	.
!	!	!LO:TX:b:t=rit.	!	!	!	!	!
16dd/	8ryy	8ffn\	.	.	.	.	.
16dd#X/JJ)	.	.	.	.	.	.	.
8r	8ryy	16ccn\LL 16ee	.	8ccn\	um-	-deł	]]
.	.	16cc\JJ 16ee	.	.	.	.	.
*v	*v	*	*	*	*	*	*
*clefF4	*	*	*	*	*	*
=60	=60	=60	=60	=60	=60	=60
*	*^	*	*	*	*	*
!	!	!	!	!LO:TX:a:t=a tempo passionato	!	!	!
16AAA-X/LL 16AA-X	(4.b-X^^/ 4.bb-X	16b-\LL	p <	4ee\	-spannt,	paść	.
16G-X/	.	16ccn\ 16ee	.	.	.	.	.
16B-X/	.	16b-\	.	.	.	.	.
16Bn/JJ	.	16cc\ 16ee	.	.	.	.	.
(16cn\LL 16e	.	16b-\	.	8r	.	.	.
16c\JJ 16e	.	16cc\JJ 16ee	[	.	.	.	.
=61	=61	=61	=61	=61	=61	=61	=61
8d-X\L) 8fn	4a/) 4aa	(>16a\LL	>	4.r	.	.	.
.	.	16cc#X\	.	.	.	.	.
(8D-X\	.	16ee\	.	.	.	.	.
.	.	16ee#\JJ)	]	.	.	.	.
8DD-X\J)	8ryy	16dd\LL 16ff#X	.	.	.	.	.
.	.	16dd\JJ 16ff#	.	.	.	.	.
=62	=62	=62	=62	=62	=62	=62	=62
!	!	!	!	!	!	!	!LO:HP:a:t=poco a poco cre_scen_do:ext=s:ext=ud
(16BBB-X/LL 16BB-X	(4.ccn/ 4.cccn	16cc\LL	<	4dd\	riß	W nie-	<
16A-X/	.	16dd\ 16ff#X	.	.	.	.	.
16cn/	.	16cc\	.	.	.	.	.
16c#X/JJ)	.	16dd\ 16ff#	.	.	.	.	.
(16d^^\LL 16f#X	.	16cc\	.	8b-X\	ich	-bo	.
16d^^\JJ 16f#	.	16dd\JJ 16ff#	.	.	.	.	.
=63	=63	=63	=63	=63	=63	=63	=63
8e-X\) 8g	4.bn/) 4.bbn	16b\LL	[ >	4bn\	dich	mi	.
.	.	16dd#X\	.	.	.	.	.
(8E-XL/	.	16ff#X\	.	.	.	.	.
.	.	16ggnX\JJ	]	.	.	.	.
8EE-X/J)	.	16ee\LL 16gg#X	.	8een\	nach	się	.
.	.	16ee\JJ 16gg#	.	.	.	.	.
!!LO:LB:g=original
=64	=64	=64	=64	=64	=64	=64	=64
!	!	!	!LO:HP:t=poco a poco cresc.:ext=s	!	!	!	!
(16CCn\LL 16Cn	(4dd/ 4ddd	16dd\LL	<	4.ee\	o-	rwa-	.
16B-X\	.	16ee\ 16gg#X	.	.	.	.	.
16d\	.	16dd\	.	.	.	.	.
16d#X\JJ)	.	16ee\ 16gg#	.	.	.	.	.
16e\LL 16g#X	8cc#/ 8ccc#	16cc#\	.	.	.	.	.
16e\JJ 16g#	.	16ee\JJ 16gg#	.	.	.	.	.
=65	=65	=65	=65	=65	=65	=65	=65
16fn\ 16a	8ccn/L 8cccn	16cc\LL	.	4ccn\	-ben,	-łaś	.
(16DD-X\LL	.	16een\	.	.	.	.	.
16D-X\	8a-X/ 8aa-X	16a-\	.	.	.	.	.
16Fn\	.	16b-X\	.	.	.	.	.
16B-X\	8gn/J 8ggn	16g\	.	8r	.	.	.
16Bn\	.	16bn\JJ)	.	.	.	.	.
*	*v	*v	*	*	*	*	*
=66	=66	=66	=66	=66	=66	=66
16cn\JJ)	(8f#X\L 8ccn 8ff#X	.	8r	.	.	.
(16DDn\LL	.	.	.	.	.	.
16Dn\	8ee\ [>8ff# [>8aa 8eee	[	8ee\	du	ty	.
16c\	.	.	.	.	.	.
16fn\	8ee-X\J 8ff#] 8aa] 8eee-X	.	8ee-X\	mein	ma	.
16f#X\	.	.	.	.	.	.
=67	=67	=67	=67	=67	=67	=67
*	*^	*	*	*	*	*
16g\JJ)	8dd/L 8ddd	16dd\LL	.	4dd\	Am-	Am-	[
(16EE-X\LL	.	16ff#X\	.	.	.	.	.
16E-X\	8b-X/ 8bb-X	16b-\	.	.	.	.	.
16G\	.	16ccn\	.	.	.	.	.
16cn\	8a/J 8aa	16a\	.	8dd\	-bra-	-bry	.
16c#X\	.	16cc#X\JJ)	.	.	.	.	.
*	*v	*v	*	*	*	*	*
=68	=68	=68	=68	=68	=68	=68
16d\JJ)	(8g#X\L 8dd 8gg#X	.	4.dd\	-duft	woń	.
(16EEn\LL	.	.	.	.	.	.
!	!	!LO:HP:t=cresc	!	!	!	!
16En\	8ff#\ [>8gg# [>8bb 8fff#	<	.	.	.	.
16d\	.	.	.	.	.	.
16g\	8ffn\J 8gg#] 8bb] 8fffn	.	.	.	.	.
16g#X\	.	.	.	.	.	.
!!LO:LB:g=original
=69	=69	=69	=69	=69	=69	=69
*	*^	*	*	*	*	*
!	!LO:TX:t=P:problem=brak zakończenia łuku	!	!	!	!	!	!
16a\JJ)	8ee/L 8eee	16ee\LL	.	4.r	.	.	.
(16FFn\LL	.	16gg#X\	.	.	.	.	.
16Fn\	8ccn/ 8cccn	16cc\	.	.	.	.	.
16Bn\	.	16dd\	.	.	.	.	.
16d\	8b/J 8bb	16b\	.	.	.	.	.
16d#X\JJ)	.	16dd#X\JJ)	.	.	.	.	.
*	*v	*v	*	*	*	*	*
=70	=70	=70	=70	=70	=70	=70
!	!	!	!	!	!	!LO:DY:a
16FF#X\LL 16F#X	16r	ff	[4.ee\	Glut	Na	ff
16A#X\JJ 16dn 16f#	16a#X\ 16ddn 16ee 16ff# 16aa#X	.	.	.	.	.
16A#\LL 16d 16f#	16a#\LL 16dd 16ee 16ff# 16aa#	.	.	.	.	.
16A#\ 16d 16f#	16a#\ 16dd 16ee 16ff# 16aa#	.	.	.	.	.
16A#\ 16d 16f#	16a#\ 16dd 16ee 16ff# 16aa#	.	.	.	.	.
16A#\JJ 16d 16f#	16a#\JJ 16dd 16ee 16ff# 16aa#	.	.	.	.	.
=71	=71	=71	=71	=71	=71	=71
16A#X\LL 16d 16f#	16a#X\LL 16dd 16ee 16ff# 16aa#X	.	4ee\]	.	.	.
16A#\ 16d 16f#	16a#\ 16dd 16ee 16ff# 16aa#	.	.	.	.	.
16A#\ 16d 16f#	16a#\ 16dd 16ee 16ff# 16aa#	.	.	.	.	.
16A#\ 16d 16f#	16a#\ 16dd 16ee 16ff# 16aa#	.	.	.	.	.
16A#\ 16d 16f#	16a#\ 16dd 16ee 16ff# 16aa#	.	8b-X\	in	mych	.
16A#\JJ 16d 16f#	16a#\JJ 16dd 16ee 16ff# 16aa#	.	.	.	.	.
=72	=72	=72	=72	=72	=72	=72
16DD\LL 16D	16r	.	[4.gg\	Glut	pier-	.
16B\JJ 16d 16g	16b\ 16dd 16ff# 16gg 16bb	.	.	.	.	.
16B\LL 16d 16g	16b\LL 16dd 16ff# 16gg 16bb	.	.	.	.	.
16B\ 16d 16g	16b\ 16dd 16ff# 16gg 16bb	.	.	.	.	.
16B\ 16d 16g	16b\ 16dd 16ff# 16gg 16bb	.	.	.	.	.
16B\JJ 16d 16g	16b\JJ 16dd 16ff# 16gg 16bb	.	.	.	.	.
=73	=73	=73	=73	=73	=73	=73
*	*	*	*^	*	*	*
16B\LL 16d 16g	16b\LL 16dd 16ff# 16gg 16bb	.	8gg/]	4gg\	.	.	.
16B\ 16d 16g	16b\ 16dd 16ff# 16gg 16bb	.	.	.	.	.	.
16B\ 16d 16g	16b\ 16dd 16ff# 16gg 16bb	.	8r	.	.	.	.
16B\ 16d 16g	16b\ 16dd 16ff# 16gg 16bb	.	.	.	.	.	.
16B\ 16d 16g	16b\ 16dd 16ff# 16gg 16bb	.	8dd/	8dd\	ver-	-siach	.
16B\JJ 16d 16g	16b\JJ 16dd 16ff# 16gg 16bb	.	.	.	.	.	.
*	*	*	*v	*v	*	*	*
!!LO:PB:g=original
=74	=74	=74	=74	=74	=74	=74
16BBB-X\LL 16BB-X	16r	fff	[4.aa-X\	-wo-	wrza-	fff
16A-X\JJ 16B-X 16d 16g-X	16ccn\ 16dd 16gg-X 16aa-X 16cccn	.	.	.	.	.
16A-\LL 16B- 16d 16g-	16cc\LL 16dd 16gg- 16aa- 16ccc	.	.	.	.	.
16A-\ 16B- 16d 16g-	16cc\ 16dd 16gg- 16aa- 16ccc	.	.	.	.	.
16A-\ 16B- 16d 16g-	16cc\ 16dd 16gg- 16aa- 16ccc	.	.	.	.	.
16A-\JJ 16B- 16d 16g-	16cc\JJ 16dd 16gg- 16aa- 16ccc	.	.	.	.	.
=75	=75	=75	=75	=75	=75	=75
16A-X\LL 16B-X 16d 16g-X	16ccn\LL 16dd 16gg-X 16aa-X 16cccn	.	4.aa-\]	.	.	.
16A-\ 16B- 16d 16g-	16cc\ 16dd 16gg- 16aa- 16ccc	.	.	.	.	.
16A-\ 16B- 16d 16g-	16cc\ 16dd 16gg- 16aa- 16ccc	.	.	.	.	.
16A-\ 16B- 16d 16g-	16cc\ 16dd 16gg- 16aa- 16ccc	.	.	.	.	.
16A-\ 16B- 16d 16g-	16cc\ 16dd 16gg- 16aa- 16ccc	.	.	.	.	.
16A-\JJ 16B- 16d 16g-	16cc\JJ 16dd 16gg- 16aa- 16ccc	.	.	.	.	.
=76	=76	=76	=76	=76	=76	=76
16A-X\KL 16B-X 16d 16g-X	(8ccn\L 8gg-X 8aa-X 8cccn	<	8dd\	-ben	-łaś	.
8A-\ 8B- 8d 8g-	.	.	.	.	.	.
.	8cc#X\ 8ccc#X	.	8r	.	.	.
8A-\ 8B- 8d 8g-	.	.	.	.	.	.
!	!LO:TX:b:t=rall.	!	!	!	!	!
.	8dd\J) 8ddd	[	8r	.	.	.
16A-\Jk 16B- 16d 16g-	.	.	.	.	.	.
=77	=77	=77	=77	=77	=77	=77
*	*8va	*	*	*	*	*
!	!	!	!LO:TX:a:t=a tempo	!	!	!
(>16AAA/LL 16AA	(16aaa\LL 16cccc#	sfff	4.r	.	.	.
!	!	!LO:HP:t=dimin.	!	!	!	!
16D/	16dddn\ 16ddddn	>	.	.	.	.
16E/	16aaa-X\ 16ccccn	.	.	.	.	.
16E#X/	16ddd-X\ 16dddd-X	.	.	.	.	.
16F#/	16ggg\ 16bbb	.	.	.	.	.
16A/JJ	16cccn\JJ 16ccccn	.	.	.	.	.
*clefG2	*	*	*	*	*	*
!!LO:LB:g=original
=78	=78	=78	=78	=78	=78	=78
!	!LO:TX:b:t=molto	!	!	!	!	!
16B-X/LL	16ggg-X\LL 16bbb-X	.	4.r	.	.	.
16c#X/	16ccc-X\ 16cccc-X	.	.	.	.	.
16d/	16fffn\ 16aaan	.	.	.	.	.
16en/	16bb-X\ 16bbb-X	.	.	.	.	.
16f#X/	16eeen\ 16ggg#X	.	.	.	.	.
16a/JJ)	16aan\JJ) 16aaan	.	.	.	.	.
*	*X8va	*	*	*	*	*
*clefF4	*	*	*	*	*	*
=79	=79	=79	=79	=79	=79	=79
(16AAA/LL 16AA	(16eee-X\LL 16gggn	p	8r	.	.	.
16BB-X/	16aa-X\ 16aaa-X	.	.	.	.	.
!	!	!	!	!	!	!LO:DY:a
16D-X/	16dddn\ 16fff#X	.	8g/	bist	ach	p <
16En/	16ggn\ 16gggn	.	.	.	.	.
16Fn/	16ddd-X\ 16fffn	.	8g/	du	i	.
16F#X/JJ	16gg-X\JJ 16ggg-X	.	.	.	.	.
=80	=80	=80	=80	=80	=80	=80
16G\LL	16cccn\LL 16eeen	.	4g/	mir	się	.
16B-X\	16ffn\ 16fffn	.	.	.	.	.
16c#X\	16ccc-X\ 16eee-X	.	.	.	.	.
!	!	!LO:HP:t=dimin.	!	!	!	!
16d\	16ff-X\ 16fff-X	>	.	.	.	.
16e-X\	16bb-X\ 16dddn	.	8g/	zer-	roz-	[[
16g-X\JJ)	16ee-X\JJ) 16eee-X	.	.	.	.	.
=81	=81	=81	=81	=81	=81	=81
!	!	!	!	!	!	!LO:HP:a
(16AAA/LL 16AA	(16aa\LL 16ccc#X	.	4.een\	-sto-	-wia-	>
16E/	16dd\ 16ddd	<	.	.	.	.
16G/	16aa-X\ 16cccn	.	.	.	.	.
16B-X/	16dd-X\ 16ddd-X	.	.	.	.	.
16Bn/	16gg\ 16bbn	.	.	.	.	.
16cn/JJ	16ccn\JJ 16cccn	[	.	.	.	.
!!LO:LB:g=original
=82	=82	=82	=82	=82	=82	=82
16c#X\LL	16gg-X\LL 16bb-X	.	8g/	-ben,	-łaś	]
16e\	16ee-X\ 16eee-X	.	.	.	.	.
16g\	16ffn\ 16aan	.	4r	.	.	.
16f#X\	16b-X\ 16bb-X	.	.	.	.	.
16e\	16een\ 16gg#X	.	.	.	.	.
16c#\JJ)	16an\JJ) 16aan	.	.	.	.	.
=83	=83	=83	=83	=83	=83	=83
(4.G^^\ 4.A 4.c# 4.fn	(16ee-X\LL 16ggn	.	8r	.	.	.
.	16a-X\ 16aa-X	.	.	.	.	.
!	!LO:TX:b:t=rallent.	!	!	!	!	!LO:HP:a
.	16ddn\ 16ff#X	.	8a/	in	w sza-	<
.	16gn\ 16ggn	.	.	.	.	.
.	16dd-X\ 16ffn	.	8a/	die	-rą	[[
.	16g-X\JJ 16gg-X	.	.	.	.	.
=84	=84	=84	=84	=84	=84	=84
4AAA/ 4AA	16ccn\LL 16een	.	4a/	grau-	brzas-	.
.	16fn\ 16ffn	.	.	.	.	.
.	16bn\ 16dd#X	.	.	.	.	.
.	16en\ 16een	.	.	.	.	.
!	!	!	!	!	!	!LO:HP:a
8G\) 8A 8c# 8e	16b-X\ 16ddn	.	8a/	-e	-ku	>]
.	16a\JJ) 16cc#X	.	.	.	.	.
=85	=85	=85	=85	=85	=85	=85
!	!	!	!LO:TX:a:t=a tempo	!	!	!
8GGG#X/ 8GG#X	16r	pp <	4dd\	Luft.	toń	.
.	16B/LL	.	.	.	.	.
8r	16Fn/J	.	.	.	.	.
.	8B#X/	.	.	.	.	.
8BB\ 8B	.	.	8r	.	.	.
.	16c#/Jk	.	.	.	.	.
=86	=86	=86	=86	=86	=86	=86
8GGGn/ 8GGn	16r	.	4.r	.	.	.
.	16d/LL	.	.	.	.	.
8r	16Fn/J	.	.	.	.	.
.	8d#X/	.	.	.	.	.
8BB\ 8B	.	.	.	.	.	.
.	16e/Jk	[[	.	.	.	.
!!LO:LB:g=original
=87	=87	=87	=87	=87	=87	=87
8GGG#X/ 8GG#X	16r	<	4.r	.	.	.
.	16B/LL	.	.	.	.	.
8r	16Fn/J	.	.	.	.	.
.	8B#X/	.	.	.	.	.
8BB\ 8B	.	.	.	.	.	.
.	16c#/Jk	.	.	.	.	.
=88	=88	=88	=88	=88	=88	=88
8GGGn/ 8GGn	16r	.	4.r	.	.	.
.	16dn/LL	.	.	.	.	.
8r	16Fn/J	.	.	.	.	.
.	8d#X/	.	.	.	.	.
8BB\ 8B	.	.	.	.	.	.
.	16e/Jk	[	.	.	.	.
=89	=89	=89	=89	=89	=89	=89
!	!	!LO:HP:t=cresc. e	!	!	!	!
8FFF#/ 8FF#	16r	<	4.r	.	.	.
.	16e#X/LL	.	.	.	.	.
8r	16B/J	.	.	.	.	.
.	8f#X/	.	.	.	.	.
8D#X\ 8d#X	.	.	.	.	.	.
.	16g/Jk	.	.	.	.	.
=90	=90	=90	=90	=90	=90	=90
8DDD/ 8DD	16r	.	4.r	.	.	.
.	16g#X/LL	.	.	.	.	.
8r	16cn/J	.	.	.	.	.
.	8a/	.	.	.	.	.
8F#\ 8f#	.	.	.	.	.	.
.	16a#X/Jk	.	.	.	.	.
=91	=91	=91	=91	=91	=91	=91
8DD/ 8D	16r	.	4.r	.	.	.
.	16b-X/LL	.	.	.	.	.
8r	16c#/J	.	.	.	.	.
.	8bn/	.	.	.	.	.
8G\ 8B-X 8c# 8e 8g	.	.	.	.	.	.
.	16b-X/Jk 16cc#X	.	.	.	.	.
=92	=92	=92	=92	=92	=92	=92
8DDD/ 8DD	8r	.	4.r	.	.	.
*	*8va	*	*	*	*	*
8A\ 8d 8f# 8a	8ddd\ 8fff#X 8aaa 8dddd	sfff	.	.	.	.
*	*X8va	*	*	*	*	*
8r	8r	.	.	.	.	.
==	==	==	==	==	==	==
*-	*-	*-	*-	*-	*-	*-
!!!system-decoration: s1{(s2,s3)}
!!!RDF**kern: Z = editorial accidental, paren
!!!RDF**kern: < = below
!!!RDF**kern: > = above
!!!RDF**dynam: > = "dim."
!!!ENC: Anastazja Marusiak
!!!END: 2023-09-19
!!!EED: Marta Chmielewska
!!!EEV: 2023-10-03
